X: 26732
T: Mila
R: reel
M: 4/4
K: Fmajor
|:GBEG Bcdg|gdcB cBGF|GBEG Bcdg|fdcB c4|
GBEG Bcdg|gdcB cBGF|d2 cB GFDC|DGGF G4:|
|:GBEd cfAa|gbdg facA|GBEd cfAa|gbgd g2 gf|
gbdg facf|dgBd AcAF|d2 cB GFDC|DGGF G4:|

